src/assets/img/icons/duotone-icons/Communication/Mail-@.svg

<svg width="24" height="24" viewBox="0 0 24 24" xmlns="http://www.w3.org/2000/svg"><g fill="none" fill-rule="evenodd"><path d="M0 0h24v24H0z"/><path d="M11.575 21.2c-5.4 0-8.725-3.8-8.725-8.625 0-5.7 4.525-9.525 9.675-9.525 4.925 0 8.6 3.025 8.6 7.8 0 4.35-2.3 6.075-4.6 6.075-1.125 0-2.05-.525-2.45-1.275-.775.75-1.95 1.225-3.075 1.225-2.75 0-4.15-1.95-4.15-4.3 0-3.025 2.2-5.475 5.425-5.475.925 0 1.675.25 2.25.675l.1-.425H17l-1.175 5.5c-.225 1.1.025 1.975 1.1 1.975 1.325 0 2.1-1.1 2.1-4.025 0-3.9-3.075-5.725-6.525-5.725-3.875 0-7.45 2.675-7.45 7.5 0 3.95 2.525 6.525 6.525 6.525 1.5 0 3.05-.325 4.4-1.025L16.8 20.1c-1.55.7-3.6 1.1-5.225 1.1zm-.175-6.675c.65 0 1.3-.175 1.825-.7l.8-3.7c-.45-.475-1.1-.7-1.725-.7-1.65 0-2.85 1.275-2.85 2.95 0 1.3.625 2.15 1.95 2.15z" fill="#335EEA"/></g></svg>

<?xml version="1.0" encoding="UTF-8"?>
<svg width="24px" height="24px" viewBox="0 0 24 24" version="1.1" xmlns="http://www.w3.org/2000/svg" xmlns:xlink="http://www.w3.org/1999/xlink">
    <!-- Generator: Sketch 52.2 (67145) - http://www.bohemiancoding.com/sketch -->
    <title>Stockholm-icons / Communication / Mail-@</title>
    <desc>Created with Sketch.</desc>
    <g id="Stockholm-icons-/-Communication-/-Mail-@" stroke="none" stroke-width="1" fill="none" fill-rule="evenodd">
        <rect id="bound" x="0" y="0" width="24" height="24"></rect>
        <path d="M11.575,21.2 C6.175,21.2 2.85,17.4 2.85,12.575 C2.85,6.875 7.375,3.05 12.525,3.05 C17.45,3.05 21.125,6.075 21.125,10.85 C21.125,15.2 18.825,16.925 16.525,16.925 C15.4,16.925 14.475,16.4 14.075,15.65 C13.3,16.4 12.125,16.875 11,16.875 C8.25,16.875 6.85,14.925 6.85,12.575 C6.85,9.55 9.05,7.1 12.275,7.1 C13.2,7.1 13.95,7.35 14.525,7.775 L14.625,7.35 L17,7.35 L15.825,12.85 C15.6,13.95 15.85,14.825 16.925,14.825 C18.25,14.825 19.025,13.725 19.025,10.8 C19.025,6.9 15.95,5.075 12.5,5.075 C8.625,5.075 5.05,7.75 5.05,12.575 C5.05,16.525 7.575,19.1 11.575,19.1 C13.075,19.1 14.625,18.775 15.975,18.075 L16.8,20.1 C15.25,20.8 13.2,21.2 11.575,21.2 Z M11.4,14.525 C12.05,14.525 12.7,14.35 13.225,13.825 L14.025,10.125 C13.575,9.65 12.925,9.425 12.3,9.425 C10.65,9.425 9.45,10.7 9.45,12.375 C9.45,13.675 10.075,14.525 11.4,14.525 Z" id="@" fill="#335EEA"></path>
    </g>
</svg>
